X:1
T:Qui veult aymer
T:Qui veult aymer
T:Jacotin
T:Source : Il primo libro di madrigali a 3 voci---Venetia---A.Gardano---1559. Editor : André Vierendeels (30/10/14).
T:Notes : Original clefs : C1, C1, C4 Original note values have been halved Editorial accidentals above the staff
C:Jacotin
%%score [ 1 2 3 ]
L:1/8
Q:1/4=80
M:2/2
K:F
V:1 treble nm="Canto 1" snm="S 1"
V:2 treble nm="Canto 2" snm="S 2"
V:3 treble-8 nm="Tenor" snm="T"
V:1
 F4 A2 A2 | c4 z4 | z8 | z4 z2 G2 | A2 A2 cB AG | F2 A2 G2 F2 | F2 E2 F2 c2 | cB AG F2 A2 | %8
w: Qui veult ay-|mer,||qui|veult ay- mer, _ _ _|_ il fault es-|tre ioy- eulx, il|faut _ _ _ _ es-|
 G2 G2 F4 | z4 c4 | c2 c2 c3 B/A/ | G2 A2 G2 A2- | AG AB A2 F2 | F2 F2 F4- | F2 CD EF GF | %15
w: tre joy- eulx|et|al- ler veoir, _ _|_ et al- ler|_ _ _ _ veoir, et|al- ler veoir|_ sa _ _ _ _ _|
 DE F2 z2 c2 | d2 d2 d2 d2 | c3 B AG B2- | BA A4 G2 | A8 | z2 A2 A2 A2 | G2 E2 G3 G | G2 G2 F4 | %23
w: _ _ _ sa|da- me sou- ve-|rai- * * * *||ne|deux ou trois|fois ou qua- tre,|la sep- mai-|
 E2 z E G3 G | G2 G2 F4 | E2 A2 G2 EF | GA G3 F D2 |"^#" E4 D4 | z2 C2 E2 E2 | GF ED C4 | %30
w: ne, ou qua- tre|la sep- mai-|ne, la sep- mai- *||* ne|pour en a-|voir, _ _ _ _|
 z2 F2 A2 A2 | c3 B AG A2 | G2 F2 F2 E2 | F4 z2 F2- | F2 A2 A2 c2- | cB AG F2 c2 | d2 f2 f2 e2 | %37
w: pour en a-|voir _ _ _ ung|bai- ser gra- ti-|eulx, pour|_ en a- voir|_ _ _ _ _ ung|bai- ser gra- ti-|
 f8 |] %38
w: eulx.|
V:2
 z4 z2 F2- | F2 A2 A2 c2- | cB AG F2 A2 | G2 F2 F2 E2 | F4 z2 F2 | A2 A2 c4 | c3 B AG F2- | %7
w: Qui|_ veult ay- mer,|_ _ _ _ _ il|fault es- tre joy-|eulx, qui|veult ay- mer,|il _ _ _ fault,|
 F2 c2 d2 f2 | f2 e2 f3 e/d/ | cB AG F2 A2 | G4 z4 | c4 c2 c2 | c6 c2 | d2 d2 d2 d2 | c3 B AG B2- | %15
w: _ il fault es-|tre joy- eulx _ _|_ _ _ _ _ _||et al- ler|veoir la|da- me sou- ve-|rai- * * * *|
 BA A4 G2 | A8 | z8 | d4 d2 d2 | c4 z2 F2 | F2 F2 E3 D | EF G4 FE | D4 z2 A2 | c3 c c2 c2 | %24
w: |ne||deux ou trois|fois, deux|ou trois fois _|_ _ _ _ _|* ou|qua- tre, la sep-|
 B4 AG AB | cd c4 AB | cd e3 d d2- | d2 c2 d2 A2 | c3 c c2 c2 | B4 A2 F2- | F2 A2 A2 c2- | %31
w: ma- * * * *|* * ne, la _|_ _ sep- * mai-|* * ne, ou|qua- tre la sep-|mai- ne pour|en a- voir, _|
 cB AG F4 | z8 | F4 A2 A2 | c3 B AG F2 | c3 B AG A2 | F2 A2 G2 G2 | F8 |] %38
w: _ _ _ _ _||pour en a-|voir _ _ _ _|ung _ _ _ _|bai- ser gra- ti-|eulx.|
V:3
 z4 F4 | A2 A2 cB AG | F2 c2 d3 c | B2 A2 G2 G2 | F8 | z2 f2 e2 f2 | c2 c2 F4 | z2 F2 B2 F2 | %8
w: Qui|veult ay- mer, _ _ _|_ il fault _|_ es- tre joy-|eulx,|il fault es-|tre joy- eulx,|il fault es-|
 c2 c2 F4- | F4 z4 | c4 c2 c2 | c3 d ec fe/d/ | cB AG F2 F2 | B2 B2 B2 B2 | FG AB cB GA | %15
w: tre joy- eulx|_|et al- ler|veoir _ _ _ _ _ _|_ _ _ _ _ la|da- me sou- ve-|rai- * * * * * * *|
 Bc de fd e2 | d3 c de f2- | f2 e2 fe dc | dc BA B4 | A4 z2 d2 | d2 d2 c2 A2 | c3 c c2 c2 | B4 A4 | %23
w: ||||ne deux|ou trois fois ou|qua- tre la sep-|mai- ne,|
 A2 c4 c2 | G2 G2 d4 | A2 z A c3 c | c2 c2 B4 | A4 z2 F2 | A2 A2 c4 | z4 F4 | A2 A2 cB AG | %31
w: ou qua- tre|la sep- mai-|ne, ou qua- tre|la sep- mai-|ne, pour|en a- voir|pour|en a- voir _ _ _|
 F2 c2 d3 c | B2 A2 G2 G2 | F4 z2 F2 | A2 A2 cB AG | F2 c2 d2 A2 | B2 F2 c4 | F8 |] %38
w: _ ung bai- *|* ser gra- ti-|eulx, pour|en a- voir _ _ _|_ ung bai- ser|gra- * ti-|eulx.|

